bitmaps/svg/geda_view_redraw.svg

<?xml version="1.0" encoding="UTF-8" standalone="no"?>
<svg
   xmlns:svg="http://www.w3.org/2000/svg"
   xmlns:xlink="http://www.w3.org/1999/xlink"
   xmlns:sodipodi="http://sodipodi.sourceforge.net/DTD/sodipodi-0.dtd"
   xmlns:inkscape="http://www.inkscape.org/namespaces/inkscape"
   inkscape:export-ydpi="90.000000"
   inkscape:export-xdpi="90.000000"
   inkscape:export-filename="../geda-view-redraw.png"
   width="48px"
   height="48px"
   id="svg11300"
   sodipodi:version="0.32"
   inkscape:version="0.48.3.1 r9886"
   sodipodi:docname="geda_view_redraw.svg"
   version="1.1">
  <defs
     id="defs3">
    <linearGradient
       id="linearGradient2690">
      <stop
         style="stop-color:#4e9a06;stop-opacity:1;"
         offset="0"
         id="stop2692" />
      <stop
         style="stop-color:#c4d7eb;stop-opacity:0;"
         offset="1"
         id="stop2694" />
    </linearGradient>
    <linearGradient
       id="linearGradient2402">
      <stop
         style="stop-color:#46a916;stop-opacity:1;"
         offset="0"
         id="stop2404" />
      <stop
         style="stop-color:#4e9a06;stop-opacity:1;"
         offset="1"
         id="stop2406" />
    </linearGradient>
    <linearGradient
       id="linearGradient2380">
      <stop
         style="stop-color:#45a916;stop-opacity:1;"
         offset="0"
         id="stop2382" />
      <stop
         style="stop-color:#45a906;stop-opacity:1;"
         offset="1"
         id="stop2384" />
    </linearGradient>
    <linearGradient
       id="linearGradient2871">
      <stop
         style="stop-color:#3a7304;stop-opacity:1;"
         offset="0"
         id="stop2873" />
      <stop
         style="stop-color:#3a7304;stop-opacity:1;"
         offset="1"
         id="stop2875" />
    </linearGradient>
    <linearGradient
       id="linearGradient2847">
      <stop
         style="stop-color:#4e9a06;stop-opacity:1;"
         offset="0"
         id="stop2849" />
      <stop
         style="stop-color:#3465a4;stop-opacity:0;"
         offset="1"
         id="stop2851" />
    </linearGradient>
    <linearGradient
       id="linearGradient2831">
      <stop
         style="stop-color:#73d216;stop-opacity:1;"
         offset="0"
         id="stop2833" />
      <stop
         id="stop2855"
         offset="0.33333334"
         style="stop-color:#73d216;stop-opacity:1;" />
      <stop
         style="stop-color:#9cd883;stop-opacity:0;"
         offset="1"
         id="stop2835" />
    </linearGradient>
    <linearGradient
       inkscape:collect="always"
       id="linearGradient2797">
      <stop
         style="stop-color:#ffffff;stop-opacity:1;"
         offset="0"
         id="stop2799" />
      <stop
         style="stop-color:#ffffff;stop-opacity:0;"
         offset="1"
         id="stop2801" />
    </linearGradient>
    <linearGradient
       inkscape:collect="always"
       id="linearGradient8662">
      <stop
         style="stop-color:#000000;stop-opacity:1;"
         offset="0"
         id="stop8664" />
      <stop
         style="stop-color:#000000;stop-opacity:0;"
         offset="1"
         id="stop8666" />
    </linearGradient>
    <linearGradient
       inkscape:collect="always"
       xlink:href="#linearGradient2831"
       id="linearGradient1486"
       gradientUnits="userSpaceOnUse"
       gradientTransform="translate(0.465413,-0.277593)"
       x1="13.478554"
       y1="10.612206"
       x2="15.419417"
       y2="19.115122" />
    <linearGradient
       inkscape:collect="always"
       xlink:href="#linearGradient2847"
       id="linearGradient1488"
       gradientUnits="userSpaceOnUse"
       gradientTransform="matrix(-1,0,0,-1,47.52791,45.84741)"
       x1="37.128052"
       y1="29.729605"
       x2="37.065414"
       y2="26.194071" />
    <linearGradient
       inkscape:collect="always"
       xlink:href="#linearGradient2797"
       id="linearGradient1491"
       gradientUnits="userSpaceOnUse"
       x1="5.9649176"
       y1="26.048164"
       x2="52.854097"
       y2="26.048164" />
    <linearGradient
       inkscape:collect="always"
       xlink:href="#linearGradient2871"
       id="linearGradient1501"
       gradientUnits="userSpaceOnUse"
       x1="46.834816"
       y1="45.264122"
       x2="45.380436"
       y2="50.939667" />
    <radialGradient
       inkscape:collect="always"
       xlink:href="#linearGradient8662"
       id="radialGradient1503"
       gradientUnits="userSpaceOnUse"
       gradientTransform="matrix(1,0,0,0.536723,-9.680928e-14,16.87306)"
       cx="24.837126"
       cy="36.421127"
       fx="24.837126"
       fy="36.421127"
       r="15.644737" />
    <linearGradient
       inkscape:collect="always"
       xlink:href="#linearGradient2402"
       id="linearGradient2408"
       x1="18.935766"
       y1="23.667896"
       x2="53.588622"
       y2="26.649362"
       gradientUnits="userSpaceOnUse" />
    <linearGradient
       inkscape:collect="always"
       xlink:href="#linearGradient2847"
       id="linearGradient2688"
       x1="36.713837"
       y1="31.455952"
       x2="37.124462"
       y2="24.842253"
       gradientUnits="userSpaceOnUse" />
    <linearGradient
       inkscape:collect="always"
       xlink:href="#linearGradient2690"
       id="linearGradient2696"
       x1="32.647972"
       y1="30.748846"
       x2="37.124462"
       y2="24.842253"
       gradientUnits="userSpaceOnUse" />
    <linearGradient
       inkscape:collect="always"
       xlink:href="#linearGradient2380"
       id="linearGradient1360"
       gradientUnits="userSpaceOnUse"
       x1="62.513836"
       y1="36.061237"
       x2="15.984863"
       y2="20.60858"
       gradientTransform="matrix(-0.579051,-0.489228,-0.489228,0.579051,56.91585,13.37137)" />
    <linearGradient
       inkscape:collect="always"
       xlink:href="#linearGradient2871"
       id="linearGradient1362"
       gradientUnits="userSpaceOnUse"
       x1="46.834816"
       y1="45.264122"
       x2="45.380436"
       y2="50.939667"
       gradientTransform="matrix(-0.579051,-0.489228,-0.489228,0.579051,56.91585,13.37137)" />
    <linearGradient
       inkscape:collect="always"
       xlink:href="#linearGradient2797"
       id="linearGradient2238"
       gradientUnits="userSpaceOnUse"
       x1="5.9649176"
       y1="26.048164"
       x2="52.854097"
       y2="26.048164"
       gradientTransform="matrix(0.508536,0.429651,0.429651,-0.508536,-3.973188,30.54119)" />
  </defs>
  <sodipodi:namedview
     stroke="#3465a4"
     fill="#729fcf"
     id="base"
     pagecolor="#ffffff"
     bordercolor="#666666"
     borderopacity="0.25490196"
     inkscape:pageopacity="0.0"
     inkscape:pageshadow="2"
     inkscape:zoom="11.667035"
     inkscape:cx="15.226833"
     inkscape:cy="26.092112"
     inkscape:current-layer="layer1"
     showgrid="false"
     inkscape:grid-bbox="true"
     inkscape:document-units="px"
     inkscape:showpageshadow="false"
     inkscape:window-width="1490"
     inkscape:window-height="939"
     inkscape:window-x="193"
     inkscape:window-y="31"
     inkscape:window-maximized="0" />
  <g
     id="layer1"
     inkscape:label="Layer 1"
     inkscape:groupmode="layer">
    <path
       transform="matrix(-1.489736,0,0,-1.001252,61.20865,75.2819)"
       d="M 40.481863 36.421127 A 15.644737 8.3968935 0 1 1  9.1923885,36.421127 A 15.644737 8.3968935 0 1 1  40.481863 36.421127 z"
       sodipodi:ry="8.3968935"
       sodipodi:rx="15.644737"
       sodipodi:cy="36.421127"
       sodipodi:cx="24.837126"
       id="path8660"
       style="opacity:0.38333333;color:#000000;fill:url(#radialGradient1503);fill-opacity:1;fill-rule:evenodd;stroke:none;stroke-width:1;stroke-linecap:butt;stroke-linejoin:miter;marker:none;marker-start:none;marker-mid:none;marker-end:none;stroke-miterlimit:10;stroke-dasharray:none;stroke-dashoffset:0;stroke-opacity:1;visibility:visible;display:inline;overflow:visible"
       sodipodi:type="arc"
       inkscape:r_cx="true"
       inkscape:r_cy="true" />
    <path
       style="color:#000000;fill:url(#linearGradient1486);fill-opacity:1;fill-rule:nonzero;stroke:url(#linearGradient1488);stroke-width:0.99999958;stroke-linecap:butt;stroke-linejoin:miter;marker:none;marker-start:none;marker-mid:none;marker-end:none;stroke-miterlimit:4;stroke-dasharray:none;stroke-dashoffset:0;stroke-opacity:1;visibility:visible;display:block;overflow:visible"
       d="M 20.152913,10.409904 C 20.152913,10.409904 11.215413,9.784904 13.965413,20.284904 L 6.2779132,20.284904 C 6.2779132,20.284904 6.7779132,8.409904 20.152913,10.409904 z "
       id="path2865"
       inkscape:r_cx="true"
       inkscape:r_cy="true"
       sodipodi:nodetypes="cccc" />
    <path
       inkscape:r_cy="true"
       inkscape:r_cx="true"
       style="color:#000000;fill:url(#linearGradient1360);fill-opacity:1;fill-rule:nonzero;stroke:url(#linearGradient1362);stroke-width:1;stroke-linecap:butt;stroke-linejoin:miter;marker:none;marker-start:none;marker-mid:none;marker-end:none;stroke-miterlimit:4;stroke-dasharray:none;stroke-dashoffset:0;stroke-opacity:1;visibility:visible;display:block;overflow:visible"
       d="M 6.6861903,20.780806 C 3.0154106,3.3782808 21.59614,-3.159876 37.794768,9.6189063 L 42.568982,4.3775657 L 42.473264,21.509896 L 27.511338,21.494489 C 27.511338,21.494489 32.491381,15.896004 32.491381,15.896004 C 21.099262,7.2624167 6.5090526,7.9087172 6.6861903,20.780806 z "
       id="path1880"
       sodipodi:nodetypes="ccccccc" />
    <path
       sodipodi:nodetypes="cccc"
       inkscape:r_cy="true"
       inkscape:r_cx="true"
       id="path2839"
       d="M 28.375,33.4375 C 28.375,33.4375 37.3125,34.0625 34.5625,23.5625 L 42.338388,23.5625 C 42.338388,25.065102 41.75,35.4375 28.375,33.4375 z "
       style="color:#000000;fill:url(#linearGradient2696);fill-opacity:1.0;fill-rule:nonzero;stroke:url(#linearGradient2688);stroke-width:0.99999958;stroke-linecap:butt;stroke-linejoin:miter;marker:none;marker-start:none;marker-mid:none;marker-end:none;stroke-miterlimit:4;stroke-dasharray:none;stroke-dashoffset:0;stroke-opacity:1;visibility:visible;display:block;overflow:visible" />
    <g
       style="color:#000000;fill:url(#linearGradient2408);fill-opacity:1.0;fill-rule:nonzero;stroke:url(#linearGradient1501);stroke-width:1.31916928;stroke-linecap:butt;stroke-linejoin:miter;marker:none;marker-start:none;marker-mid:none;marker-end:none;stroke-miterlimit:4;stroke-dasharray:none;stroke-dashoffset:0;stroke-opacity:1;visibility:visible;display:block;overflow:visible;opacity:1"
       inkscape:r_cy="true"
       inkscape:r_cx="true"
       transform="matrix(0.579051,0.489228,0.489228,-0.579051,-7.921023,30.53599)"
       id="g2779">
      <path
         inkscape:r_cy="true"
         inkscape:r_cx="true"
         style="opacity:1;color:#000000;fill:url(#linearGradient2408);fill-opacity:1.0;fill-rule:nonzero;stroke:url(#linearGradient1501);stroke-width:1.31916928;stroke-linecap:butt;stroke-linejoin:miter;marker:none;marker-start:none;marker-mid:none;marker-end:none;stroke-miterlimit:4;stroke-dasharray:none;stroke-dashoffset:0;stroke-opacity:1;visibility:visible;display:block;overflow:visible"
         d="M 44.306783,50.229694 C 62.821497,35.818859 49.664587,13.411704 22.462411,12.49765 L 22.399432,3.0690297 L 7.793943,20.424005 L 22.462411,33.006349 C 22.462411,33.006349 22.462411,23.337969 22.462411,23.337969 C 41.292171,24.336946 55.444038,37.409698 44.306783,50.229694 z "
         id="path2781"
         sodipodi:nodetypes="ccccccc" />
    </g>
    <path
       style="opacity:0.27222224;color:#000000;fill:#ffffff;fill-opacity:1;fill-rule:nonzero;stroke:none;stroke-width:0.99999982;stroke-linecap:round;stroke-linejoin:miter;marker:none;marker-start:none;marker-mid:none;marker-end:none;stroke-miterlimit:4;stroke-dasharray:none;stroke-dashoffset:0;stroke-opacity:1;visibility:visible;display:inline;overflow:visible"
       d="M 7.0625,38.1875 L 7.125,23.3125 L 20.0625,22.9375 L 15.673627,28.116317 L 19.540852,30.489516 C 16.540852,32.739516 14.991304,32.911644 13.991304,35.474144 L 11.174446,33.363872 L 7.0625,38.1875 z "
       id="path2791"
       inkscape:r_cx="true"
       inkscape:r_cy="true"
       sodipodi:nodetypes="cccccccc" />
    <path
       inkscape:r_cy="true"
       inkscape:r_cx="true"
       style="opacity:0.5;color:#000000;fill:none;fill-opacity:1;fill-rule:nonzero;stroke:url(#linearGradient2238);stroke-width:0.99999988;stroke-linecap:butt;stroke-linejoin:miter;marker:none;marker-start:none;marker-mid:none;marker-end:none;stroke-miterlimit:4;stroke-dasharray:none;stroke-dashoffset:0;stroke-opacity:1;visibility:visible;display:block;overflow:visible"
       d="M 41.74781,29.128145 C 39.846579,40.786439 24.982894,44.371796 11.069384,32.836682 L 7.5412303,37.041916 L 7.6405071,23.535579 L 18.880968,23.469771 C 18.880968,23.469771 15.039438,28.07399 15.039438,28.07399 C 23.856761,35.718699 37.278381,38.057708 41.74781,29.128145 z "
       id="path2795"
       sodipodi:nodetypes="ccccccc" />
    <g
       style="opacity:0.5;fill:none;fill-opacity:1;stroke:#ffffff;stroke-opacity:1"
       inkscape:r_cy="true"
       inkscape:r_cx="true"
       transform="matrix(-0.508536,-0.429651,-0.429651,0.508536,53.049,13.36548)"
       id="g2805">
      <path
         inkscape:r_cy="true"
         inkscape:r_cx="true"
         style="opacity:1;color:#000000;fill:none;fill-opacity:1;fill-rule:nonzero;stroke:url(#linearGradient1491);stroke-width:1.50208926;stroke-linecap:butt;stroke-linejoin:miter;marker:none;marker-start:none;marker-mid:none;marker-end:none;stroke-miterlimit:4;stroke-dasharray:none;stroke-dashoffset:0;stroke-opacity:1;visibility:visible;display:block;overflow:visible"
         d="M 51.389927,46.505946 C 60.510127,31.286196 47.050763,12.432359 19.628482,12.069755 L 19.342824,4.0507204 L 6.3413093,19.379475 L 19.809059,30.764589 C 19.809059,30.764589 19.627294,21.311346 19.627294,21.311346 C 37.872231,21.693318 54.411175,32.236592 51.389927,46.505946 z "
         id="path2807"
         sodipodi:nodetypes="ccccccc" />
    </g>
    <path
       style="opacity:0.27222224;color:#000000;fill:#ffffff;fill-opacity:1;fill-rule:nonzero;stroke:none;stroke-width:0.99999982;stroke-linecap:round;stroke-linejoin:miter;marker:none;marker-start:none;marker-mid:none;marker-end:none;stroke-miterlimit:4;stroke-dasharray:none;stroke-dashoffset:0;stroke-opacity:1;visibility:visible;display:inline;overflow:visible"
       d="M 6.8125,16.5 C 10.405935,6.0587275 23.256282,10.355393 27,12 C 31.175307,12.211475 32.674736,9.164996 36,9 C 21.950264,-0.7899963 7.1875,2.5 6.8125,16.5 z "
       id="path2811"
       inkscape:r_cx="true"
       inkscape:r_cy="true"
       sodipodi:nodetypes="cccc" />
  </g>
</svg>

<?xml version="1.0" encoding="UTF-8"?>
<svg id="svg11300" width="48px" height="48px"
   xmlns="http://www.w3.org/2000/svg"
   xmlns:xlink="http://www.w3.org/1999/xlink"
   inkscape:export-filename="../geda-view-redraw.png"
   inkscape:export-ydpi="90.0"
   inkscape:export-xdpi="90.0">
 <defs id="defs3">
  <linearGradient id="linearGradient2402">
   <stop id="stop2404" stop-color="#46a916" offset="0"/>
   <stop id="stop2406" stop-color="#4e9a06" offset="1"/>
  </linearGradient>
  <linearGradient id="linearGradient2871">
   <stop id="stop2873" stop-color="#3a7304" offset="0"/>
   <stop id="stop2875" stop-color="#3a7304" offset="1"/>
  </linearGradient>
  <linearGradient id="linearGradient2847">
   <stop id="stop2849" stop-color="#4e9a06" offset="0"/>
   <stop id="stop2851" stop-color="#3465a4" stop-opacity="0" offset="1"/>
  </linearGradient>
  <linearGradient id="linearGradient2797">
   <stop id="stop2799" stop-color="#fff" offset="0"/>
   <stop id="stop2801" stop-color="#fff" stop-opacity="0" offset="1"/>
  </linearGradient>
  <linearGradient id="linearGradient1491" x1="5.9649" x2="52.854" y1="26.048" y2="26.048" gradientUnits="userSpaceOnUse" xlink:href="#linearGradient2797"/>
  <linearGradient id="linearGradient1501" x1="46.835" x2="45.38" y1="45.264" y2="50.94" gradientUnits="userSpaceOnUse" xlink:href="#linearGradient2871"/>
  <radialGradient id="radialGradient1503" cx="24.837" cy="36.421" r="15.645" gradientTransform="matrix(1 0 0 .53672 0 16.873)" gradientUnits="userSpaceOnUse">
   <stop id="stop8664" offset="0"/>
   <stop id="stop8666" stop-opacity="0" offset="1"/>
  </radialGradient>
  <linearGradient id="linearGradient2408" x1="18.936" x2="53.589" y1="23.668" y2="26.649" gradientUnits="userSpaceOnUse" xlink:href="#linearGradient2402"/>
  <linearGradient id="linearGradient3038" x1="5.9649" x2="52.854" y1="26.048" y2="26.048" gradientTransform="matrix(.50854 .42965 .42965 -.50854 -3.9732 30.541)" gradientUnits="userSpaceOnUse" xlink:href="#linearGradient2797"/>
  <linearGradient id="linearGradient3044" x1="32.648" x2="37.124" y1="30.749" y2="24.842" gradientUnits="userSpaceOnUse">
   <stop id="stop2692" stop-color="#4e9a06" offset="0"/>
   <stop id="stop2694" stop-color="#c4d7eb" stop-opacity="0" offset="1"/>
  </linearGradient>
  <linearGradient id="linearGradient3046" x1="36.714" x2="37.124" y1="31.456" y2="24.842" gradientUnits="userSpaceOnUse" xlink:href="#linearGradient2847"/>
  <linearGradient id="linearGradient3049" x1="62.514" x2="15.985" y1="36.061" y2="20.609" gradientTransform="matrix(-.57905 -.48923 -.48923 .57905 56.916 13.371)" gradientUnits="userSpaceOnUse">
   <stop id="stop2382" stop-color="#45a916" offset="0"/>
   <stop id="stop2384" stop-color="#45a906" offset="1"/>
  </linearGradient>
  <linearGradient id="linearGradient3051" x1="46.835" x2="45.38" y1="45.264" y2="50.94" gradientTransform="matrix(-.57905 -.48923 -.48923 .57905 56.916 13.371)" gradientUnits="userSpaceOnUse" xlink:href="#linearGradient2871"/>
  <linearGradient id="linearGradient3054" x1="13.479" x2="15.419" y1="10.612" y2="19.115" gradientTransform="translate(.46541 -.27759)" gradientUnits="userSpaceOnUse">
   <stop id="stop2833" stop-color="#73d216" offset="0"/>
   <stop id="stop2855" stop-color="#73d216" offset=".33333"/>
   <stop id="stop2835" stop-color="#9cd883" stop-opacity="0" offset="1"/>
  </linearGradient>
  <linearGradient id="linearGradient3056" x1="37.128" x2="37.065" y1="29.73" y2="26.194" gradientTransform="matrix(-1 0 0 -1 47.528 45.847)" gradientUnits="userSpaceOnUse" xlink:href="#linearGradient2847"/>
 </defs>
 <g id="layer1">
    <path
       transform="matrix(-1.489736,0,0,-1.001252,61.20865,75.2819)"
       d="m 40.481863,36.421127 a 15.644737,8.3968935 0 1 1 -31.2894745,0 15.644737,8.3968935 0 1 1 31.2894745,0 z"
       id="path8660"
       style="opacity:0.38333333;color:#000000;fill:url(#radialGradient1503);fill-opacity:1;fill-rule:evenodd;stroke:none;stroke-width:1;marker:none;visibility:visible;display:inline;overflow:visible"/>
  <path id="path2865" d="m20.153 10.41s-8.9375-0.625-6.1875 9.875h-7.6875s0.5-11.875 13.875-9.875z" color="#000000" display="block" fill="url(#linearGradient3054)" stroke="url(#linearGradient3056)"/>
  <path id="path1880" d="m6.6862 20.781c-3.6708-17.403 14.91-23.941 31.109-11.162l4.7742-5.2413-0.09572 17.132-14.962-0.01541 4.98-5.5985c-11.392-8.6336-25.982-7.9873-25.805 4.8848z" color="#000000" display="block" fill="url(#linearGradient3049)" stroke="url(#linearGradient3051)"/>
  <path id="path2839" d="m28.375 33.438s8.9375 0.625 6.1875-9.875h7.7759c0 1.5026-0.58839 11.875-13.963 9.875z" color="#000000" display="block" fill="url(#linearGradient3044)" stroke="url(#linearGradient3046)"/>
  <g id="g2779" transform="matrix(.57905 .48923 .48923 -.57905 -7.921 30.536)" color="#000000" display="block" fill="url(#linearGradient2408)" stroke="url(#linearGradient1501)" stroke-width="1.3192">
   <path id="path2781" d="m44.307 50.23c18.515-14.411 5.3578-36.818-21.844-37.732l-0.062979-9.4286-14.605 17.355 14.668 12.582v-9.6684c18.83 0.99898 32.982 14.072 21.844 26.892z" color="#000000" display="block" fill="url(#linearGradient2408)" stroke="url(#linearGradient1501)" stroke-width="1.3192"/>
  </g>
  <path id="path2791" d="m7.0625 38.188 0.0625-14.875 12.938-0.375-4.3889 5.1788 3.8672 2.3732c-3 2.25-4.5495 2.4221-5.5495 4.9846l-2.8169-2.1103-4.1119 4.8236z" color="#000000" fill="#fff" opacity=".27222"/>
  <path id="path2795" d="m41.748 29.128c-1.9012 11.658-16.765 15.244-30.678 3.7085l-3.5282 4.2052 0.099277-13.506 11.24-0.06581s-3.8415 4.6042-3.8415 4.6042c8.8173 7.6447 22.239 9.9837 26.708 1.0542z" color="#000000" display="block" fill="none" opacity=".5" stroke="url(#linearGradient3038)"/>
  <g id="g2805" transform="matrix(-.50854 -.42965 -.42965 .50854 53.049 13.365)" fill="none" opacity=".5" stroke="#fff">
   <path id="path2807" d="m51.39 46.506c9.1202-15.22-4.3392-34.074-31.761-34.436l-0.28566-8.019-13.002 15.329 13.468 11.385-0.18176-9.4532c18.245 0.38197 34.784 10.925 31.763 25.195z" color="#000000" display="block" fill="none" stroke="url(#linearGradient1491)" stroke-width="1.5021"/>
  </g>
  <path id="path2811" d="m6.8125 16.5c3.5934-10.441 16.444-6.1446 20.188-4.5 4.1753 0.21148 5.6747-2.835 9-3-14.05-9.79-28.812-6.5-29.188 7.5z" color="#000000" fill="#fff" opacity=".27222"/>
 </g>
</svg>
